!!!!SEGMENT: pl-gd--ee-1638--006-016_marenzio-luca--il-quinto-libro-de-madrigalia-a-cinque-voci-chi-vol-veder-amor.krn
!!!cenid: 15xx:898
!!!COM: Marenzio, Luca
!!!COM-rismid: pe30003955
!!!CDT: ~1553-1599/08/22
!!!CNT: Italian
!!!GTL: Il Quinto libro de madrigalia a cinque voci
!!!OTL: Chi vol veder amor
!!!OMV: 016
!!!PDT: 1585
!!!AGN:
!!!SMS-siglum: PL-GD
!!!SMS-shelfmark: Ee 1638
!!!SMS-variant:
!!!SMS-altvar:
!!!SMS-shelfwork: 006-016 G
!!!NIFC-rismid: 990039296
!!!URL-scan: https://repozytorium.nifc.pl/islandora/object/pl-gd%3A57883/datastream/PDF/view
!!!ONB-nifc:
**kern	**text	**kern	**text	**kern	**text	**kern	**text	**kern	**text
*part5	*part5	*part4	*part4	*part3	*part3	*part2	*part2	*part1	*part1
*staff5	*staff5	*staff4	*staff4	*staff3	*staff3	*staff2	*staff2	*staff1	*staff1
*I"BASSO	*	*I"TENORE	*	*I"ALTO 	*	*I"QVINTO	*	*I"CANTO	*
*I'B	*	*I'T	*	*I'A	*	*I'V	*	*I'S	*
*ICvox	*	*ICvox	*	*ICvox	*	*ICvox	*	*ICvox	*
*Ibass	*	*Itenor	*	*Ialto	*	*Ivox	*	*Isoprn	*
*clefF4	*	*clefC4	*	*clefC3	*	*clefC1	*	*clefC1	*
*k[]	*	*k[]	*	*k[]	*	*k[]	*	*k[]	*
*D:	*	*D:	*	*D:	*	*D:	*	*D:	*
*M2/1	*	*M2/1	*	*M2/1	*	*M2/1	*	*M2/1	*
*met(C)	*	*met(C)	*	*met(C)	*	*met(C)	*	*met(C)	*
=1-	=1-	=1-	=1-	=1-	=1-	=1-	=1-	=1-	=1-
0r	.	2A/	CHi	0r	.	0r	.	4r	.
.	.	.	.	.	.	.	.	4a\	CHi
.	.	4B\	vuol	.	.	.	.	4g#X/	vuol
.	.	4c#X\	ve-	.	.	.	.	4a\	ve-
.	.	4d\	-der	.	.	.	.	4f#X/	-der
.	.	4B\	A-	.	.	.	.	4g#/	A-
.	.	2c#X\	-mo-	.	.	.	.	2e/	-mo-
=2-	=2-	=2-	=2-	=2-	=2-	=2-	=2-	=2-	=2-
1r	.	2d\	-re	4r	.	2d/	CHi	2d/	-re
.	.	.	.	4d\	Chi	.	.	.	.
.	.	2r	.	4c#X/	vuol	4e/	vuol	2r	.
.	.	.	.	4d\	ve-	4f#X/	ve-	.	.
2r	.	2r	.	4B/	-der	4g/	-der	0r	.
.	.	.	.	4c#/	A-	4e/	A-	.	.
2D/	CHi	4r	.	2A/	-mo-	2f#X/	-mo-	.	.
.	.	4d\	Chi	.	.	.	.	.	.
=3-	=3-	=3-	=3-	=3-	=3-	=3-	=3-	=3-	=3-
4E\	vuol	4c#X\	vuol	1G	-re	1g	-re	.	.
4F#X\	ve-	4d\	ve-	.	.	.	.	.	.
4G\	-der	4B\	-der	.	.	.	.	.	.
4E\	A-	4c#\	A-	.	.	.	.	.	.
2F#X\	-mo-	2A/	-mo-	2ryy	.	0r	.	2r	.
!	!	!LO:SIC:v:t=custos F	!	!	!	!	!	!	!
2G\	-re	2G/	-re	4d\	E	.	.	4b\	E
.	.	.	.	4e\	ſue-	.	.	4cc\	ſue
!	!	!LO:LB:g=original	!	!	!	!	!	!	!
=4-	=4-	=4-	=4-	=4-	=4-	=4-	=4-	=4-	=4-
4D/	E	4F/	E	4f\	-re-	.	.	4dd\	re-
4E\	ſue-	4G/	ſue	8e\	.	.	.	8cc\	.
.	.	.	.	8d\	.	.	.	8b\	.
4Fny\	-re-	4A/	re-	4cny/	.	.	.	4a\	.
!	!	!	!	!LO:SIC:v:t=custos e	!	!	!	!LO:SIC:v:t=custos cc	!
8E\	.	8G/	.	4d\	.	.	.	4b\	.
8D\	.	8F/	.	.	.	.	.	.	.
!	!	!	!	!LO:LB:g=original	!	!	!	!LO:LB:g=original	!
4C/	.	4E/	.	2e\	.	2r	.	4cc\	.
!LO:SIC:v:t=custos E	!	!	!	!	!	!	!	!	!
4D/	.	4F/	.	.	.	.	.	8b\	.
.	.	.	.	.	.	.	.	8a\	.
!LO:LB:g=original	!	!	!	!	!	!	!	!	!
4E\	.	2.G/	.	2e\	-ti	4b\	E	4gny\	.
8D/	.	.	.	.	.	4cc\	ſue	4a\	.
8C/	.	.	.	.	.	.	.	.	.
=5-	=5-	=5-	=5-	=5-	=5-	=5-	=5-	=5-	=5-
4BB/	.	.	.	1r	.	4dd\	re-	4b\	.
4C/	.	8A/	.	.	.	8cc\	.	4e/	.
.	.	8G/	.	.	.	8b\	.	.	.
4D/	.	4F/	.	.	.	4a\	.	4fny/	.
!	!	!	!	!	!	!LO:SIC:v:t=custos cc#	!	!	!
8C/	.	8E/	.	.	.	4b\	.	4g/	.
8BB/	.	8D/	.	.	.	.	.	.	.
!	!	!	!	!	!	!LO:LB:g=original	!	!	!
4AA/	.	1E	.	2r	.	4cc#X\	.	4a\	.
4GG/	.	.	.	.	.	2dd\	.	4b-X\	.
2AA/	.	.	.	2e\	ſa-	.	.	2a\	.
.	.	.	.	.	.	4cc#X\	.	.	.
=6-	=6-	=6-	=6-	=6-	=6-	=6-	=6-	=6-	=6-
0D	-ti	4D/	-ti	8f\	-et-	2dd\	-ti	1a	-ti
.	.	.	.	8e\	.	.	.	.	.
.	.	4A/	ſa-	8f\	.	.	.	.	.
.	.	.	.	8g\	.	.	.	.	.
.	.	8D/	-et-	4a\	.	4r	.	.	.
.	.	8E/	.	.	.	.	.	.	.
.	.	8F/	.	4d\	-te	4a\	ſa-	.	.
.	.	8G/	.	.	.	.	.	.	.
.	.	4A/	.	2r	.	8d/	-et-	4r	.
.	.	.	.	.	.	8e/	.	.	.
.	.	4D/	-te	.	.	8fny/	.	4a\	ſa-
.	.	.	.	.	.	8g/	.	.	.
.	.	4r	.	4r	.	4a\	.	8d/	-et-
.	.	.	.	.	.	.	.	8e/	.
!	!	!LO:SIC:v:t=custos D	!	!	!	!	!	!	!
*	*	*	*	*	*ij	*	*	*	*
.	.	4A/	ſa-	4a\	ſa-	4d/	-te	8f/	.
.	.	.	.	.	.	.	.	8g/	.
!	!	!LO:LB:g=original	!	!	!	!	!	!	!
=7-	=7-	=7-	=7-	=7-	=7-	=7-	=7-	=7-	=7-
2r	.	8D/	-et-	2f\	-et-	4r	.	0a	.
.	.	8E/	.	.	.	.	.	.	.
.	.	8F/	.	.	.	4a\	ſa-	.	.
.	.	8G/	.	.	.	.	.	.	.
4r	.	2A/	.	2e\	-te	8ccny\	-et-	.	.
.	.	.	.	.	.	8b\	.	.	.
4A\	ſa-	.	.	.	.	8a\	.	.	.
.	.	.	.	.	.	8g\	.	.	.
8D\	-et-	1A	-te	4r	.	2f/	.	.	.
8E\	.	.	.	.	.	.	.	.	.
*	*	*	*	*	*Xij	*	*	*	*
8F\	.	.	.	4d\	ſa-	.	.	.	.
8G\	.	.	.	.	.	.	.	.	.
2A\	.	.	.	8c\	-et-	2e/	-te	.	.
.	.	.	.	8d\	.	.	.	.	.
.	.	.	.	8e\	.	.	.	.	.
.	.	.	.	8f\	.	.	.	.	.
=8-	=8-	=8-	=8-	=8-	=8-	=8-	=8-	=8-	=8-
0G	-te	4r	.	2g\	.	4r	.	2bny\	-te
.	.	4d\	[Et]	.	.	4b\	[Et]	.	.
.	.	8d\	ar-	2g\	-te	8b\	ar-	2r	.
.	.	8cny\	.	.	.	8a\	.	.	.
.	.	8B\	.	.	.	8g\	.	.	.
!	!	!	!	!	!	!LO:SIC:v:t=custos b	!	!	!
.	.	8c\	.	.	.	8a\	.	.	.
!	!	!	!	!	!	!LO:LB:g=original	!	!	!
.	.	4d\	.	4r	.	4b\	.	4r	.
!	!	!	!	!LO:SIC:v:t=custos d	!	!	!	!LO:SIC:v:t=custos b	!
.	.	4d\	-co	4d\	[Et]	4b\	-co	4b\	[Et]
!	!	!	!	!LO:LB:g=original	!	!	!	!LO:LB:g=original	!
.	.	4r	.	8d\	ar-	4r	.	8b\	ar-
.	.	.	.	8c\	.	.	.	8a\	.
*	*	*	*	*	*	*	*ij	*	*
.	.	4G/	[Et]	8B/	.	4b\	[Et]	8g\	.
.	.	.	.	8c\	.	.	.	8a\	.
=9-	=9-	=9-	=9-	=9-	=9-	=9-	=9-	=9-	=9-
2r	.	8G/	ar-	4d\	.	8b\	ar-	4b\	.
.	.	8F/	.	.	.	8a\	.	.	.
.	.	8E/	.	4G/	-co	8g\	.	4b\	-co
.	.	8F/	.	.	.	8a\	.	.	.
4r	.	1G	.	2r	.	4b\	.	4r	.
!LO:SIC:v:t=custos G	!	!	!	!	!	!	!	!	!
4G\	[Et]	.	.	.	.	4b\	-co	4b\	[Et]
!LO:LB:g=original	!	!	!	!	!	!	!	!	!
8G\	ar-	.	.	4r	.	4r	.	8b\	ar-
8F\	.	.	.	.	.	.	.	8a\	.
*	*	*	*	*	*	*	*Xij	*	*
8E\	.	.	.	4g\	[Et[	4ee\	[Et]	8g\	.
8F\	.	.	.	.	.	.	.	8a\	.
4G\	.	2G/	-co et	8g\	ar-	8ee\	ar-	4b\	.
.	.	.	.	8f\	.	8dd\	.	.	.
4C/	-co e	.	.	8e\	.	8cc\	.	4g/	-co
.	.	.	.	8f\	.	8dd\	.	.	.
=10-	=10-	=10-	=10-	=10-	=10-	=10-	=10-	=10-	=10-
2.C/	fo-	0E	fo-	2g\	.	4ee\	.	4r	.
.	.	.	.	.	.	4cc\	-co	4ee\	[Et]
.	.	.	.	2e\	-co e	4cc\	[Et]	4ee\	fe-
4D/	.	.	.	.	.	8b\	fo-	8dd\	.
.	.	.	.	.	.	8a\	.	8cc\	.
1E	.	.	.	1e	fo-	4g#X/	.	4b\	.
.	.	.	.	.	.	2a\	.	4a\	.
.	.	.	.	.	.	.	.	2b\	.
!	!	!	!	!	!	!LO:SIC:v:t=custos a	!	!	!
.	.	.	.	.	.	4g#X/	.	.	.
!	!	!	!	!	!	!LO:LB:g=original	!	!	!
=11-	=11-	=11-	=11-	=11-	=11-	=11-	=11-	=11-	=11-
!	!	!LO:SIC:v:t=custos A	!	!	!	!	!	!LO:SIC:v:t=custos a	!
1AA	-co	2E/	-co	2e\	-co	2a\	-co	2cc#X\	-co
!	!	!LO:LB:g=original	!	!	!	!	!	!LO:LB:g=original	!
.	.	4r	.	4r	.	4r	.	4r	.
.	.	4A/	E	4c#X/	E	4e/	E	4a\	E
00r	.	4.A/	ve-	4.c#X/	ve-	4.a\	ve-	4.e/	ve-
.	.	8A/	-ne-	8c#/	-ne-	8a\	-ne-	8e/	-ne-
.	.	4A/	-re	4c#/	-re e	4a\	-re	4e/	-re
!	!	!	!	!LO:SIC:v:t=custos e	!	!	!	!	!
.	.	4d\	le	4d\	le	4a\	le	4f/	le
!	!	!	!	!LO:LB:g=original	!	!	!	!	!
=12-	=12-	=12-	=12-	=12-	=12-	=12-	=12-	=12-	=12-
.	.	2c\	gra-	2e\	gra-	2cc\	gra-	2g/	gra-
.	.	2F/	-ti'il	2f\	-tie	2cc\	-ti-	2a\	-ti'il
.	.	1c	ri-	1r	.	4cc\	-e	4a\	re-
.	.	.	.	.	.	8b\	il-	8g/	.
.	.	.	.	.	.	8a\	-ri	8f/	.
.	.	.	.	.	.	4gny/	.	4e/	.
.	.	.	.	.	.	4a\	.	4f/	.
=13-	=13-	=13-	=13-	=13-	=13-	=13-	=13-	=13-	=13-
.	.	1c	-ſo	2r	.	4e/	.	4g/	.
.	.	.	.	.	.	2f/	.	4a\	.
.	.	.	.	4r	.	.	.	2g/	.
.	.	.	.	4cny\	e'l	4e/	.	.	.
00r	.	2r	.	8d\	gio-	8f/	ſo	2f/	-ſo
.	.	.	.	8e\	.	8g/	.	.	.
.	.	.	.	4f\	.	8a\	.	.	.
.	.	.	.	.	.	8f/	.	.	.
.	.	4r	.	2c/	-co	2g/	.	4r	.
.	.	4c\	e'l	.	.	.	.	4e/	e'l-
=14-	=14-	=14-	=14-	=14-	=14-	=14-	=14-	=14-	=14-
.	.	8d\	gio-	2r	.	2r	.	8f/	-gio-
.	.	8e\	.	.	.	.	.	8g/	.
.	.	4f\	.	.	.	.	.	8a\	.
.	.	.	.	.	.	.	.	8f/	.
.	.	2c\	-co	4r	.	4r	.	2g/	.
!	!	!	!	!	!	!LO:SIC:v:t=custos f	!	!	!
*	*	*	*	*	*ij	*	*	*	*
.	.	.	.	4c/	e'l	4e/	e'l	.	.
!	!	!	!	!	!	!LO:LB:g=original	!	!LO:SIC:v:t=custos e	!
.	.	2r	.	8d\	gio-	8f/	gio-	2f/	-co
.	.	.	.	8e\	.	8g/	.	.	.
.	.	.	.	4f\	.	8a\	.	.	.
.	.	.	.	.	.	8f/	.	.	.
!	!	!	!	!	!	!	!	!LO:LB:g=original	!
.	.	4r	.	2c/	-co	2g/	.	4r	.
.	.	4c\	e'l	.	.	.	.	4e/	e'l
*	*	*	*	*	*Xij	*	*	*	*
=15-	=15-	=15-	=15-	=15-	=15-	=15-	=15-	=15-	=15-
.	.	8d\	gio-	4r	.	2f/	-co	8f/	gio-
.	.	8e\	.	.	.	.	.	8g/	.
.	.	4f\	.	4d\	e'l	.	.	8a\	.
.	.	.	.	.	.	.	.	8f/	.
.	.	2c\	-co	8e\	gio-	4r	.	2g/	.
.	.	.	.	8f\	.	.	.	.	.
.	.	.	.	2g\	.	4g/	e'l	.	.
1r	.	1r	.	.	.	2a\	gio-	2d/	-co
.	.	.	.	4f#X\	.	.	.	.	.
.	.	.	.	2g\	-co	2b\	-co	2r	.
=16-	=16-	=16-	=16-	=16-	=16-	=16-	=16-	=16-	=16-
!	!	!LO:SIC:v:t=custos B	!	!	!	!	!	!	!
1G	La	1B	La	2r	.	0r	.	1g	La
!	!	!	!	!LO:SIC:v:t=custos e	!	!	!	!	!
.	.	.	.	2d\	La	.	.	.	.
!	!	!LO:LB:g=original	!	!LO:LB:g=original	!	!	!	!	!
2.E\	dol-	2.B\	dol-	2.e\	dol-	.	.	2.g#X/	dol-
4E\	-ce	4B\	-ce	4e\	-ce	.	.	4g#/	-ce
=17-	=17-	=17-	=17-	=17-	=17-	=17-	=17-	=17-	=17-
!	!	!	!	!	!	!LO:TX:t=P:problem:pauza której nie było	!	!	!
2E\	bocc-	2B\	bocc-	2e\	bocc'	1ryy	.	2gny/	bocc
2A\	-e'l	2c\	-e'l	2e\	e'l	.	.	2a\	e'l
2G#X\	ſe-	2B\	ſe-	1e	ſe-	2r	.	2b#X\	ſe-
2A\	-no	2c#X\	-no	.	.	4r	.	2a\	-no
.	.	.	.	.	.	4a\	Di	.	.
=18-	=18-	=18-	=18-	=18-	=18-	=18-	=18-	=18-	=18-
!LO:SIC:v:t=custos D	!	!	!	!	!	!	!	!	!
2D/	Di	4r	.	1d\	-no	4.a\	fil-	4r	.
.	.	4d\	Di	.	.	.	.	4f#X/	Di
.	.	.	.	.	.	8a\	-li	.	.
!LO:LB:g=original	!	!	!	!	!	!	!	!	!
4.D/	fil-	4.A/	fil-	.	.	4d/	mia	4.f#/	fil-
.	.	.	.	.	.	4dd\	ſol	.	.
8D/	-la	8A/	-li	.	.	.	.	8f#/	-li
4GG/	mia	2B\	mia	4r	.	2b\	mi-	2g/	mia
4Gny\	ſol	.	.	4d\	Di	.	.	.	.
2F#X\	mi-	2r	.	4.d\	fil-	2a\	-ri	4r	.
!	!	!	!	!	!	!	!	!LO:SIC:v:t=custos b	!
.	.	.	.	.	.	.	.	4dd\	ſol
.	.	.	.	8d\	-la	.	.	.	.
!	!	!	!	!	!	!	!	!LO:LB:g=original	!
=19-	=19-	=19-	=19-	=19-	=19-	=19-	=19-	=19-	=19-
2G\	-ri	4r	.	4G/	mia	2r	.	2bny\	mi-
.	.	4d\	Di	4g\	ſol	.	.	.	.
2r	.	4.d\	fil-	2f#X\	mi-	4r	.	2a\	-ri
.	.	.	.	.	.	4dd\	ſol	.	.
.	.	8d\	-li	.	.	.	.	.	.
4r	.	4G/	mia	2g\	-ri	2b\	mi-	4r	.
4G\	Di	4d\	ſol	.	.	.	.	4dd\	Di
!	!	!	!	!	!	!LO:SIC:v:t=custos a	!	!	!
4.G\	fil-	2B\	mi-	4r	.	2g/	-ri	4.dd\	fil-
*	*	*	*	*	*ij	*	*	*	*
.	.	.	.	4d\	Di	.	.	.	.
8G\	-li	.	.	.	.	.	.	8dd\	-li
!	!	!	!	!	!	!LO:LB:g=original	!	!	!
=20-	=20-	=20-	=20-	=20-	=20-	=20-	=20-	=20-	=20-
2D/	mia	1A	-ri	4.f#X\	fil-	4r	.	1dd	mia
.	.	.	.	.	.	4a\	Di	.	.
.	.	.	.	8f#\	-li	.	.	.	.
2D/	ſol	.	.	2f#\	mia	4.a\	fil-	.	.
.	.	.	.	.	.	8a\	-li	.	.
2BB/	mi-	4r	.	2g\	ſol	4d/	mia	2r	.
!	!	!LO:SIC:v:t=custos E	!	!	!	!	!	!	!
.	.	4G/	ſol	.	.	4dd\	ſol	.	.
!	!	!LO:LB:g=original	!	!	!	!	!	!	!
2AA/	-ri	2E/	mi-	2a\	mi-	2cc#X\	mi-	4r	.
.	.	.	.	.	.	.	.	4a\	Di
=21-	=21-	=21-	=21-	=21-	=21-	=21-	=21-	=21-	=21-
4r	.	2D/	-ri	1f#X\	-ri	1dd	-ri	4.a\	fil-
*	*ij	*	*	*	*	*	*	*	*
4D/	De	.	.	.	.	.	.	.	.
.	.	.	.	.	.	.	.	8a\	-li
4.D/	fil-	4r	.	.	.	.	.	4d/	mia
.	.	4d\	Di	.	.	.	.	4dd\	ſol
8D/	-li	.	.	.	.	.	.	.	.
4GG/	mia	4.d\	fil-	4r	.	1r	.	2b\	mi-
*	*	*	*	*	*Xij	*	*	*	*
!LO:SIC:v:t=custos E	!	!	!	!	!	!	!	!	!
4G\	sol	.	.	4d\	ſol	.	.	.	.
.	.	8d\	-li	.	.	.	.	.	.
!LO:LB:g=original	!	!	!	!	!	!	!	!	!
2E\	mi-	4G/	mia	2e\	mi-	.	.	2g/	-ri
.	.	4G/	ſol	.	.	.	.	.	.
=22-	=22-	=22-	=22-	=22-	=22-	=22-	=22-	=22-	=22-
2D/	-ri	2F#X/	mi-	2A/	-ri	4r	.	1r	.
.	.	.	.	.	.	4dd\	ſol	.	.
4r	.	2G/	-ri	2d\	Di	2b\	mi-	.	.
*	*Xij	*	*	*	*	*	*	*	*
4G\	ſol	.	.	.	.	.	.	.	.
2F#X\	mi-	2r	.	4.d\	fil-	2a\	-ri	4r	.
.	.	.	.	.	.	.	.	4dd\	ſol
.	.	.	.	8d\	-la	.	.	.	.
2G\	-ri	4r	.	4G/	mia	2r	.	2b\	mi-
*	*	*	*ij	*	*	*	*	*	*
.	.	4d\	Di	4g\	ſol	.	.	.	.
=23-	=23-	=23-	=23-	=23-	=23-	=23-	=23-	=23-	=23-
0r	.	4.d\	fil-	2f#X\	mi-	4r	.	2a\	-ri
.	.	.	.	.	.	4dd\	ſol	.	.
.	.	8d\	-li	.	.	.	.	.	.
.	.	4G/	mia	4g\	-ri	2b\	mi-	4r	.
!	!	!	!	!	!	!	!	!LO:SIC:v:t=custos e	!
.	.	4G/	ſol	2d\	ſol	.	.	4g/	ſol
!	!	!	!	!	!	!	!	!LO:LB:g=original	!
.	.	1A	mi-	.	.	1a	-ri	1e	mi-
.	.	.	.	8c#X/	.	.	.	.	.
.	.	.	.	8B/	.	.	.	.	.
.	.	.	.	2c#X/	mi-	.	.	.	.
=24-	=24-	=24-	=24-	=24-	=24-	=24-	=24-	=24-	=24-
2r	.	2D/	-ri	2d\	-ri	4r	.	1d	-ri
.	.	.	.	.	.	2a\	E-	.	.
2D/	E-	4r	.	4r	.	.	.	.	.
*	*	*	*Xij	*	*	*	*	*	*
.	.	4A/	E	4f#X\	E-	2dd\	-vi-	.	.
2G\	-vi-	2B\	vi-	2g\	-vi-	.	.	00r	.
.	.	.	.	.	.	2g/	-ua	.	.
!	!	!LO:SIC:v:t=custos d	!	!LO:SIC:v:t=custos a	!	!	!	!	!
2C/	-ua	1cny\	-ua	2e\	-ua	.	.	.	.
.	.	.	.	.	.	4.ccny\	poi	.	.
!	!	!LO:LB:g=original	!	!LO:LB:g=original	!	!	!	!	!
=25-	=25-	=25-	=25-	=25-	=25-	=25-	=25-	=25-	=25-
4.Fny\	poi	.	.	4.a\	poi	.	.	.	.
!	!	!	!	!	!	!LO:SIC:v:t=custos a	!	!	!
.	.	.	.	.	.	8b\	ſe	.	.
!	!	!	!	!	!	!LO:LB:g=original	!	!	!
.	.	.	.	.	.	2a\	può	.	.
8E\	ſe	.	.	8g\	ſe	.	.	.	.
2D/	può	4.d\	poi	2f#X\	può	.	.	.	.
.	.	.	.	.	.	2b\	ſen-	.	.
.	.	8c\	ſe	.	.	.	.	.	.
2E\	ſen-	4B\	può	2g\	ſen-	.	.	.	.
.	.	2c\	ſen-	.	.	4g/	-za	.	.
2C/	-za	.	.	2e\	-za	4r	.	.	.
.	.	4c\	-za	.	.	4g/	ſoſ-	.	.
=26-	=26-	=26-	=26-	=26-	=26-	=26-	=26-	=26-	=26-
4r	.	4r	.	4r	.	2f/	-pi-	.	.
4D/	ſoſ-	4A/	ſoſ-	4d\	ſoſ-	.	.	.	.
2E\	-pi-	2G#X/	-pi-	2B/	-pi-	2e/	-ri	.	.
1AA	-ri	2A/	-ri	2c#X/	-ri	4r	.	1r	.
.	.	.	.	.	.	2e/	E	.	.
.	.	4r	.	4r	.	.	.	.	.
.	.	4A/	E	4e\	E	2a\	vi-	.	.
=27-	=27-	=27-	=27-	=27-	=27-	=27-	=27-	=27-	=27-
1r	.	2d\	vi-	2f#X\	vi-	.	.	2a\	E-
.	.	.	.	.	.	2d/	-ua	.	.
.	.	2Gny/	-ua	2g\	-ua	.	.	2b\	-vi-
.	.	.	.	.	.	4.g/	poi	.	.
2r	.	4.c\	poi	4.e\	poi	.	.	2g/	-ua
.	.	.	.	.	.	8f/	ſe	.	.
.	.	.	.	.	.	2e/	può	.	.
.	.	8B\	ſe	8d\	ſe	.	.	.	.
!LO:SIC:v:t=custos D	!	!	!	!	!	!	!	!	!
2AA/	E	2A/	può	2cNY/	può	.	.	4.a\	poi
.	.	.	.	.	.	2a\	E-	.	.
.	.	.	.	.	.	.	.	8g/	ſe
!LO:LB:g=original	!	!	!	!	!	!	!	!	!
=28-	=28-	=28-	=28-	=28-	=28-	=28-	=28-	=28-	=28-
!	!	!	!	!LO:TX:t=P:problem:niepewna nuta	!	!	!	!	!
2D/	vi-	4r	.	2A/	E	.	.	4f#X/	può
.	.	2D/	E	.	.	2dd\	-vi-	4a\	E-
2GG/	-ua	.	.	2d\	v(i)-	.	.	2b\	-vi-
.	.	2G/	v(i)-	.	.	2g/	-ua	.	.
4.C/	poi	.	.	2G/	-ua	.	.	2e/	-ua
.	.	2E/	-ua	.	.	4.cc\	poi	.	.
8BB/	ſe	.	.	.	.	.	.	.	.
2AA/	può	.	.	4.c/	poi	.	.	4.ee\	poi
.	.	.	.	.	.	8b\	ſe	.	.
!	!	!	!	!	!	!LO:SIC:v:t=custos a	!	!	!
.	.	4.c\	poi	.	.	4a\	può	.	.
!	!	!	!	!LO:SIC:v:t=custos e	!	!	!	!	!
.	.	.	.	8d\	ſe	.	.	8dd\	ſe
!	!	!	!	!LO:LB:g=original	!	!LO:LB:g=original	!	!	!
=29-	=29-	=29-	=29-	=29-	=29-	=29-	=29-	=29-	=29-
1AA	ſen-	.	.	1e\	può	4.a\	ſen-	4ccny\	può
.	.	8B\	ſe	.	.	.	.	.	.
!	!	!LO:SIC:v:t=custos A	!	!	!	!	!	!	!
.	.	4A/	può	.	.	.	.	4ee\	ſen-
.	.	.	.	.	.	8b\	.	.	.
!	!	!LO:LB:g=original	!	!	!	!	!	!	!
.	.	1A	ſen-	.	.	1cc\	.	8ee\	-za
.	.	.	.	.	.	.	.	8dd\	.
.	.	.	.	.	.	.	.	8cc\	.
!	!	!	!	!	!	!	!	!LO:SIC:v:t=custos a	!
.	.	.	.	.	.	.	.	8b\	.
!	!	!	!	!	!	!	!	!LO:LB:g=original	!
2FF/	-za	.	.	2fny\	ſen-	.	.	2a\	.
4r	.	2G/	-za	2d\	-za	2b\	-za	4r	.
4GG/	ſoſ-	.	.	.	.	.	.	4d/	mo-
=30-	=30-	=30-	=30-	=30-	=30-	=30-	=30-	=30-	=30-
1AA	-pi-	4r	.	4c#X/	ſoſ-	4r	.	1a	-ri-
.	.	4Fny/	ſoſ-	2d\	-pi-	4a\	ſoſ-	.	.
.	.	2E/	-pi-	.	.	2e/	-pi-	.	.
.	.	.	.	4c#X/	.	.	.	.	.
00D	-ri.	00D	-ri.	00d	-ri.	00f#X	-ri.	00a	-re.
==	==	==	==	==	==	==	==	==	==
*-	*-	*-	*-	*-	*-	*-	*-	*-	*-
!!!system-decoration: [(s1,s2,s3,s4,s5)]
!!!ENC: Andrzej Gręziak
!!!END: 2022-06-10
!!!AIN: 1 alto 1 bass 1 soprn 1 tenor 1 vox
!!!ENC: Natalia Wrzos
!!!END: 2022-07-20
